X: 36
T:Marquis of Lorne
% Nottingham Music Database
S:Kevin Briggs
M:4/4
L:1/8
R:Hornpipe
K:G
ba|"G"gfge B2ed|"Am"cBcA E2AG|"D7"FGAB cdef|"G"g/3b/3a/3 g/3f/3e/3 "D7"d2ba|
"G"gfge "Em"B2ed|"Am"cBcA E2AG|"D7"FGAB cdef|"G"g2b2 g2:|:
Bc|"G"dBgB dgBc|"G"d/3c/3B/3 gB d2cB|"Am"cAfA cfAB|"Am"c/3B/3A/3 fA "D7"c2Bc|
"G"dBgB dgBc|"G"d/3c/3B/3 gB "Em"d2cB|"Am"ceag "D7"fdef|"G"g2b2 g2:|


